16x16/actions/aggregation.svg

<svg xmlns="http://www.w3.org/2000/svg" viewBox="0 0 16 16">
  <defs id="defs3051">
    <style type="text/css" id="current-color-scheme">
      .ColorScheme-Text {
        color:#5d656b;
      }
      </style>
  </defs>
  <path 
     style="fill:currentColor;fill-opacity:1;stroke:none" 
     d="M 7 2 L 7 6.6660156 L 4.5 10 L 7.5 14 L 10.5 10 L 8 6.6660156 L 8 2 L 7 2 z M 7.5 7.6699219 L 9.25 10.001953 L 7.5 12.332031 L 5.75 10.001953 L 7.5 7.6699219 z "
     class="ColorScheme-Text"/>
  <path
     d="M 7.5,12.33 9.25,9.998 7.5,7.666 5.75,9.998 Z"
     style="fill:currentColor;fill-opacity:0.5;stroke:none" 
     class="ColorScheme-Text"/>
</svg>

<svg xmlns="http://www.w3.org/2000/svg" viewBox="0 0 16 16"><defs id="defs3051"><style type="text/css" id="current-color-scheme">.ColorScheme-Text{color:#5d656b}</style></defs><path style="fill:currentColor;fill-opacity:1;stroke:none" d="M7 2v4.666L4.5 10l3 4 3-4L8 6.666V2H7zm.5 5.67 1.75 2.332-1.75 2.33-1.75-2.33L7.5 7.67z" class="ColorScheme-Text"/><path d="m7.5 12.33 1.75-2.332L7.5 7.666 5.75 9.998z" style="fill:currentColor;fill-opacity:.5;stroke:none" class="ColorScheme-Text"/></svg>
